src/assets/svgs/refactor/bridge-network-scroll.svg

<svg fill="none" height="46" viewBox="0 0 46 46" width="46" xmlns="http://www.w3.org/2000/svg" xmlns:xlink="http://www.w3.org/1999/xlink"><clipPath id="a"><rect height="46" rx="23" width="46"/></clipPath><g clip-path="url(#a)"><rect fill="#fff" height="46" rx="23" width="46"/><path d="m23 46c12.7025 0 23-10.2975 23-23s-10.2975-23-23-23-23 10.2975-23 23 10.2975 23 23 23z" fill="#ffeeda"/><path d="m32.9661 27.5361v-13.9321c-.0186-1.1657-.9252-2.104-2.0632-2.104h-14.1921c-3.0623.0474-5.5233 2.6158-5.5233 5.7624 0 1.0615.2776 1.9713.7031 2.7674.3608.6635.9252 1.289 1.4803 1.7534.1573.1327.0833.0758.5644.3791.6661.417 1.4247.6255 1.4247.6255l-.0092 8.3308c.0185.3981.0555.7772.1573 1.1278.3145 1.1753 1.1102 2.0756 2.1926 2.5116.4533.1801.9622.3033 1.508.3128l11.3334.0379c2.2574 0 4.0893-1.8766 4.0893-4.1986.0092-1.3742-.6569-2.6063-1.6653-3.374z" fill="#ffeeda"/><path d="m33.2429 31.0129c-.0463 1.488-1.2397 2.6822-2.7015 2.6822l-7.7992-.0285c.6199-.7392.9992-1.6965.9992-2.739 0-1.6396-.953-2.7674-.953-2.7674h7.7622c1.4896 0 2.7015 1.2415 2.7015 2.7674z" fill="#ebc28e"/><g fill="#101010"><path d="m14.111 20.6122c-.8974-.872-1.5265-1.9998-1.5265-3.3362v-.1421c.074-2.2841 1.9059-4.1228 4.1355-4.1891h14.1922c.37.0189.6661.2843.6661.6729v12.3019c.3238.0569.4811.1043.7956.218.2498.0948.5922.2938.5922.2938v-12.8137c-.0186-1.1657-.9252-2.104-2.0632-2.104h-14.1921c-3.0623.0474-5.5233 2.6158-5.5233 5.7623 0 1.8292.8142 3.393 2.1464 4.4924.0925.0758.1758.1706.4163.1706.4164 0 .7124-.3412.6939-.7108-.0092-.3128-.1388-.4265-.3331-.616z"/><path d="m30.5406 26.7274h-11.1298c-.7494.0095-1.3507.6255-1.3507 1.3932v1.6396c.0185.7583.6476 1.4027 1.397 1.4027h.8234v-1.4027h-.8234v-1.6017h.4533c1.4063 0 2.4425 1.3364 2.4425 2.7675 0 1.27-1.1288 2.8907-3.0161 2.758-1.6746-.1138-2.5812-1.6397-2.5812-2.758v-13.8942c0-.6255-.4996-1.1373-1.1102-1.1373h-1.1102v1.4217h.8234v13.6193c-.0463 2.7674 1.9243 4.1606 3.9782 4.1606l11.2131.0379c2.2574 0 4.0892-1.8765 4.0892-4.1985s-1.841-4.2081-4.0985-4.2081zm2.7015 4.2934c-.0462 1.488-1.2397 2.6821-2.7015 2.6821l-7.7992-.0284c.6199-.7393.9992-1.6965.9992-2.739 0-1.6397-.9529-2.7675-.9529-2.7675h7.7622c1.4895 0 2.7015 1.2416 2.7015 2.7675z"/><path d="m27.5437 17.5681h-8.3914v-1.4216h8.3914c.3793 0 .6938.3127.6938.7108 0 .3886-.3053.7108-.6938.7108z"/><path d="m27.5437 24.2615h-8.3914v-1.4217h8.3914c.3793 0 .6938.3128.6938.7109 0 .3885-.3053.7108-.6938.7108z"/><path d="m29.0239 20.9158h-9.8716v-1.4217h9.8624c.3793 0 .6939.3128.6939.7109.0092.3885-.3053.7108-.6847.7108z"/></g></g></svg>

<svg width="46" height="46" viewBox="0 0 46 46" fill="none" xmlns="http://www.w3.org/2000/svg">
<g clip-path="url(#clip0_4108_3200)">
<rect width="46" height="46" rx="23" fill="white"/>
<path d="M23 46C35.7025 46 46 35.7025 46 23C46 10.2975 35.7025 0 23 0C10.2975 0 0 10.2975 0 23C0 35.7025 10.2975 46 23 46Z" fill="#FFEEDA"/>
<path d="M32.9661 27.5361V13.604C32.9475 12.4383 32.0409 11.5 30.9029 11.5H16.7108C13.6485 11.5474 11.1875 14.1158 11.1875 17.2624C11.1875 18.3239 11.4651 19.2337 11.8906 20.0298C12.2514 20.6933 12.8158 21.3188 13.3709 21.7832C13.5282 21.9159 13.4542 21.859 13.9353 22.1623C14.6014 22.5793 15.36 22.7878 15.36 22.7878L15.3508 31.1186C15.3693 31.5167 15.4063 31.8958 15.5081 32.2464C15.8226 33.4217 16.6183 34.322 17.7007 34.758C18.154 34.9381 18.6629 35.0613 19.2087 35.0708L30.5421 35.1087C32.7995 35.1087 34.6314 33.2321 34.6314 30.9101C34.6406 29.5359 33.9745 28.3038 32.9661 27.5361Z" fill="#FFEEDA"/>
<path d="M33.2429 31.0129C33.1966 32.5009 32.0032 33.6951 30.5414 33.6951L22.7422 33.6666C23.3621 32.9274 23.7414 31.9701 23.7414 30.9276C23.7414 29.288 22.7884 28.1602 22.7884 28.1602H30.5506C32.0402 28.1602 33.2521 29.4017 33.2521 30.9276L33.2429 31.0129Z" fill="#EBC28E"/>
<path d="M14.111 20.6122C13.2136 19.7402 12.5845 18.6124 12.5845 17.276V17.1339C12.6585 14.8498 14.4904 13.0111 16.72 12.9448H30.9122C31.2822 12.9637 31.5783 13.2291 31.5783 13.6177V25.9196C31.9021 25.9765 32.0594 26.0239 32.3739 26.1376C32.6237 26.2324 32.9661 26.4314 32.9661 26.4314V13.6177C32.9475 12.452 32.0409 11.5137 30.9029 11.5137H16.7108C13.6485 11.5611 11.1875 14.1295 11.1875 17.276C11.1875 19.1052 12.0017 20.669 13.3339 21.7684C13.4264 21.8442 13.5097 21.939 13.7502 21.939C14.1666 21.939 14.4626 21.5978 14.4441 21.2282C14.4349 20.9154 14.3053 20.8017 14.111 20.6122Z" fill="#101010"/>
<path d="M30.5406 26.7274H19.4108C18.6614 26.7369 18.0601 27.3529 18.0601 28.1206V29.7602C18.0786 30.5185 18.7077 31.1629 19.4571 31.1629H20.2805V29.7602H19.4571V28.1585C19.4571 28.1585 19.6606 28.1585 19.9104 28.1585C21.3167 28.1585 22.3529 29.4949 22.3529 30.926C22.3529 32.196 21.2241 33.8167 19.3368 33.684C17.6622 33.5702 16.7556 32.0443 16.7556 30.926V17.0318C16.7556 16.4063 16.256 15.8945 15.6454 15.8945H14.5352V17.3162H15.3586V30.9355C15.3123 33.7029 17.2829 35.0961 19.3368 35.0961L30.5499 35.134C32.8073 35.134 34.6391 33.2575 34.6391 30.9355C34.6391 28.6135 32.7981 26.7274 30.5406 26.7274ZM33.2421 31.0208C33.1959 32.5088 32.0024 33.7029 30.5406 33.7029L22.7414 33.6745C23.3613 32.9352 23.7406 31.978 23.7406 30.9355C23.7406 29.2958 22.7877 28.168 22.7877 28.168H30.5499C32.0394 28.168 33.2514 29.4096 33.2514 30.9355L33.2421 31.0208Z" fill="#101010"/>
<path d="M27.5437 17.5681H19.1523V16.1465H27.5437C27.923 16.1465 28.2375 16.4592 28.2375 16.8573C28.2375 17.2459 27.9322 17.5681 27.5437 17.5681Z" fill="#101010"/>
<path d="M27.5437 24.2615H19.1523V22.8398H27.5437C27.923 22.8398 28.2375 23.1526 28.2375 23.5507C28.2375 23.9392 27.9322 24.2615 27.5437 24.2615Z" fill="#101010"/>
<path d="M29.0239 20.9158H19.1523V19.4941H29.0147C29.394 19.4941 29.7086 19.8069 29.7086 20.205C29.7178 20.5935 29.4033 20.9158 29.0239 20.9158Z" fill="#101010"/>
</g>
<defs>
<clipPath id="clip0_4108_3200">
<rect width="46" height="46" rx="23" fill="white"/>
</clipPath>
</defs>
</svg>
